X:1
T:Amour  hellas
T:Ebran
T:Source : Livre XVI de 29 chansons nouvelles à 4 parties---Paris---P.Attaingnant---1545. Editor : André Vierendeels (02/07/18) Notes : Original clefs : G2, C2, C3, C4 Original note values heve been halved Editorial accidentals above the staff Square brackets indicate ligatures  
T:Amour  hellas
T:©
T:©
T:©
C:Ebran
Z:©
%%score [ 1 2 3 4 ]
L:1/8
Q:1/4=120
M:2/2
K:C
V:1 treble nm="Soprano" snm="S"
V:2 treble nm="Alto" snm="A"
V:3 treble-8 nm="Tenor" snm="T"
V:4 bass nm="Bass" snm="B"
V:1
 c8 | c4 d4 | e4 z2 e2 | e2 c2 d2 e2 | f3 e d2 c2 | B3 c d2 G2- | GABc defe | dc c4 B2 | %8
w: A-|mour, hel-|las, on|n'a pas d'a- van-|tai- * * *||||
w: A|te ser-|vir, i'e|sti- moys es- tre'heu-|||||
[M:2/4] c4 :|[M:2/2] z2 c2 c4 | A4 GFGA | BAGF G4 | A4 z2 B2 | G2 G2 c2 c2 | BG g3 f ed | %15
w: ge,|a- vec-|que toy, _ _ _|_ _ _ _ _|* mais|ie suys dou- lou-|reulx, _ dou- * * *|
w: reulx,|||||||
 c3 B AG A2 | c3 B AG G2- | G2 F2 G4 | z2 d2 d2 d2 | edef g4 | z2 d2 e2 g2 | f2 e4 d2 | %22
w: lou- * * * *||* * reulx|car tu m'oc-|cis, _ _ _ _|en te fai-|sant hom- mai-|
w: |||||||
 e2 e2 f2 g2 | c2 g2 g4- | g2 f2 e2 d2 | c2 Bc d2 c2- | c2 BA B4 | z8 | z2 d2 e2 c2 | d2 f3 e e2- | %30
w: ge, car tu m'oc-|cis en te|_ fai- sant hom-|mai- * * * *|* * * ge,||en te fai-|sant hom- * *|
w: ||||||||
 ed d3 c f2 | e2 d3 c c2- | c2 B2 c4- | c8 |] %34
w: |mai- * * *|* * ge.|_|
w: ||||
V:2
 G8 | F4 F4 | E3 F G4 | z2 E2 G2 G2 | F2 D2 A4 | G2 G,2 A,2 C2 | B,2 G,2 A,2 A2- | A2 G2 F2 D2 | %8
w: A-|mour, hel-|las, _ _|on n'a pas|d'a- van- tai-|ge, on n'a pas|d'a- van- tai- *||
w: A|te ser-|vir, _ _|i'e- sti- moys|es- tre'heu- *|reulx, i'e- sti- moys|es- tre'heu- * *||
[M:2/4] E4 :|[M:2/2] z2 G2 G4 | F4 E4- | E4 z2 E2 | C2 C2 G2 G2 | E4 z4 | G3 F ED C2 | G2 A4 F2- | %16
w: ge,|a- ve-|que toy,|_ mais|ie suys dou- lou-|reulx,|dou- * * * *|lou- * *|
w: reulx,||||||||
 F2 G2 FEDC | D4 B,2 E2 | E2 DC D2 G2- | GFED E4 | z2 G2 G2 G2 | c3 B A4 | G4 z2 G2 | A2 G2 E2 G2 | %24
w: |* reulx, car|tu m'oc- * * cis,|_ _ _ _ _|en te fai-|sant hom- mai-|ge, car|tu m'oc- cis, en|
w: ||||||||
 G6 G2 | A6 A2 | A4 G2 G2 | A2 F2 G3 F | E2 D3 C C2- | C2 B,2 C2 G2- | GA B2 A4 | z2 G2 A2 F2 | %32
w: te fai-|sant hom-|mai- ge, en|te fai- sant hom-|mai- * * *|* * ge, hom-|* * mai- ge,|en te fai-|
w: ||||||||
 G3 F E2 A2 | G4 G4 |] %34
w: sant _ _ hom-|mai- ge.|
w: ||
V:3
 c8 | A4 B4 | c8 | z2 c2 B2 B2 | A3 G ABcd | ef g2 f2 e2 | dcde f2 d2 | fedc d4 |[M:2/4] c4 :| %9
w: A-|mour, hel-|las,|on n'a pas|d'a- * * * * *|* * * van- tai-|||ge,|
w: A|te ser-|vir,|i'e- sti- moys|es- * * * * *|* * * * stre'heu-|||reulx,|
[M:2/2] z2 e2 e4 | d4 B2 B2 | G2 G2 c2 c2 | ABcd ef g2- | gfed e4 | d4 g3 f | ed c3 B AG | %16
w: a- vec-|que toy, mais|ie suys dou- lou-|reulx, _ _ _ _ _ _|_ _ _ _ _|* dou- *||
w: |||||||
 A2 c3 B AG | A4 G2 c2- | c2 BA B2 B2 | c2 c2 c2 c2 | d3 c B4 | A2 c4 BA | BABc d2 c2- | %23
w: * lou- * * *|* reulx, car|_ tu _ _ m'oc-|cis, en te fai-|sant _ _|hom- mai- * *|* * * * ge, car|
w: |||||||
 c2 B2 c2 e2 | e3 f g2 d2 | e4 f4- | f4 d2 e2- | ed d3 c c2- | c2 B2 c4 | z2 d2 e2 c2 | d3 e fedc | %31
w: _ tu m'oc- cis|en te fai- sant|hom mai-|||* * ge,|en te fai-|sant _ _ _ _ _|
w: ||||||||
 Bcde f2 c2 | d4 c4- | c8 |] %34
w: _ _ _ _ _ hom-|mai- ge.|_|
w: |||
V:4
 C,8 | F,4 D,4 | C,4 z2 C,2 | G,2 A,2 G,2 G,2 | D,3 E, F,G,A,F, | G,3 F,/E,/ D,2 C,2 | G,4 D,3 C, | %7
w: A-|mour, hel-|las, on|n'a pas d'a- van-|tai- * * * * *|||
w: A|te ser-|vir, i'e-|sti- moys es- tre'heu-||||
 D,2 E,2 F,2 G,2 |[M:2/4] C,4 :|[M:2/2] z2 C,2 C,4 | D,4 E,4 | z2 E,2 C,2 C,2 | F,2 F,2 E,4 | %13
w: |ge,|a- vec-|que toy,|mais ie suys|dou- lou- reulx,|
w: |reulx,|||||
 z2 E,2 C,2 C,2 | G,2 G,2 C,2 C2- | CB,A,G, F,4- | F,2 E,2 F,2 G,2 | D,2 D,2 E,2 C,2 | G,8 | C,8 | %20
w: mais ie suys|dou- lou- reulx, dou-|||lou- reulx, car tu|m'oc-|cis,|
w: |||||||
 z2 G,2 G,2 G,2 | A,3 G, F,4 | E,4 z2 E,2 | F,2 G,2 C,2 C2 | C6 B,2 | A,2 G,2 F,4- | F,4 G,4 | %27
w: en te fai-|sant hom- mai-|ge, car|tu m'oc- cis en|te fai-|sant hom- mai-|* ge,|
w: |||||||
 z2 D,2 E,2 C,2 | G,3 F, E,2 F,2 | D,4 C,4 | G,4 A,2 F,2 | G,4 F,2 A,2 | G,4 C,4- | C,8 |] %34
w: en te fai-|sant _ _ hom-|mai- ge,|e, te fai-|sant hom- mai-|* ge.|_|
w: |||||||

